polaris-icons/icons/new-icons/CalendarMajor.svg

<svg width="20" height="20" viewBox="0 0 20 20" fill="none" xmlns="http://www.w3.org/2000/svg">
<path fill-rule="evenodd" clip-rule="evenodd" d="M7.75 3.5C7.75 3.08579 7.41421 2.75 7 2.75C6.58579 2.75 6.25 3.08579 6.25 3.5V3.90665C6.00413 3.96421 5.77128 4.04472 5.54754 4.15873C4.84193 4.51825 4.26825 5.09193 3.90873 5.79754C3.68239 6.24175 3.58803 6.7219 3.54336 7.26853C3.49999 7.79944 3.49999 8.45505 3.5 9.26789V10.7321C3.49999 11.5449 3.49999 12.2006 3.54336 12.7315C3.58803 13.2781 3.68239 13.7582 3.90873 14.2025C4.26825 14.9081 4.84193 15.4817 5.54754 15.8413C5.99175 16.0676 6.4719 16.162 7.01853 16.2066C7.54944 16.25 8.20505 16.25 9.01788 16.25L12.4013 16.25C12.7236 16.25 12.943 16.2501 13.1364 16.23C14.9018 16.0472 16.2972 14.6518 16.48 12.8864C16.5001 12.693 16.5 12.4736 16.5 12.1514L16.5 9.26788C16.5 8.45505 16.5 7.79944 16.4566 7.26853C16.412 6.7219 16.3176 6.24175 16.0913 5.79754C15.7317 5.09193 15.1581 4.51825 14.4525 4.15873C14.2287 4.04472 13.9959 3.96421 13.75 3.90665V3.5C13.75 3.08579 13.4142 2.75 13 2.75C12.5858 2.75 12.25 3.08579 12.25 3.5V3.75859C11.8765 3.74999 11.456 3.75 10.9821 3.75H9.0179C8.54396 3.75 8.12348 3.74999 7.75 3.75859V3.5ZM6.22852 5.49524C6.42604 5.3946 6.68681 5.32547 7.14068 5.28838C7.60331 5.25058 8.19755 5.25 9.05 5.25H10.95C11.8025 5.25 12.3967 5.25058 12.8593 5.28838C13.3132 5.32547 13.574 5.3946 13.7715 5.49524C14.1948 5.71095 14.5391 6.05516 14.7548 6.47852C14.8554 6.67604 14.9245 6.9368 14.9616 7.39068C14.9764 7.57123 14.9855 7.77183 14.991 8H5.00895C5.01455 7.77183 5.02363 7.57123 5.03838 7.39068C5.07547 6.9368 5.1446 6.67604 5.24524 6.47852C5.46095 6.05516 5.80516 5.71095 6.22852 5.49524ZM5 9.5V10.7C5 11.5525 5.00058 12.1467 5.03838 12.6093C5.07547 13.0632 5.1446 13.324 5.24524 13.5215C5.46095 13.9448 5.80516 14.289 6.22852 14.5048C6.42604 14.6054 6.68681 14.6745 7.14068 14.7116C7.60331 14.7494 8.19755 14.75 9.05 14.75H12.3557C12.7407 14.75 12.8759 14.749 12.9818 14.738C14.0411 14.6283 14.8783 13.7911 14.988 12.7318C14.999 12.6259 15 12.4907 15 12.1057V9.5H5Z" fill="#4A4A4A"/>
</svg>

<svg viewBox="0 0 20 20" xmlns="http://www.w3.org/2000/svg"><path fill-rule="evenodd" d="M7.75 3.5a.75.75 0 0 0-1.5 0v.407a3.075 3.075 0 0 0-.702.252 3.75 3.75 0 0 0-1.64 1.639c-.226.444-.32.924-.365 1.47-.043.531-.043 1.187-.043 2v1.464c0 .813 0 1.469.043 2 .045.546.14 1.026.366 1.47a3.75 3.75 0 0 0 1.639 1.64c.444.226.924.32 1.47.365.531.043 1.187.043 2 .043h3.383c.323 0 .542 0 .735-.02a3.75 3.75 0 0 0 3.344-3.344c.02-.193.02-.412.02-.735v-2.883c0-.813 0-1.469-.043-2-.045-.546-.14-1.026-.366-1.47a3.75 3.75 0 0 0-1.639-1.64 3.076 3.076 0 0 0-.702-.251v-.407a.75.75 0 0 0-1.5 0v.259c-.373-.009-.794-.009-1.268-.009h-1.964c-.474 0-.895 0-1.268.009v-.259Zm-1.521 1.995c.197-.1.458-.17.912-.207.462-.037 1.057-.038 1.909-.038h1.9c.853 0 1.447 0 1.91.038.453.037.714.107.912.207.423.216.767.56.983.984.1.197.17.458.207.912.014.18.024.38.029.609h-9.982c.006-.228.015-.429.03-.61.036-.453.106-.714.206-.911a2.25 2.25 0 0 1 .984-.984Zm-1.229 4.005v1.2c0 .853 0 1.447.038 1.91.037.453.107.714.207.912.216.423.56.767.984.983.197.1.458.17.912.207.462.037 1.057.038 1.909.038h3.306c.385 0 .52-.001.626-.012a2.25 2.25 0 0 0 2.006-2.006c.011-.106.012-.241.012-.626v-2.606h-10Z" fill="#5C5F62"/></svg>
